src/main/resources/react/src/img/MySettings/logout.svg

<svg width="17" height="17" viewBox="0 0 17 17" fill="none" xmlns="http://www.w3.org/2000/svg">
<g clip-path="url(#clip0)">
<path d="M13.4369 4.93689L12.6857 5.68811L14.9663 7.96875H7.4375V9.03126H14.9663L12.6857 11.3119L13.4369 12.0631L17 8.5L13.4369 4.93689Z" fill="black"/>
<path d="M11.6875 15.9375H1.06251V1.06251H11.6875V2.12502H12.75V0.531256C12.75 0.237605 12.5124 0 12.2188 0H0.531256C0.237605 0 0 0.237605 0 0.531256V16.4687C0 16.7624 0.237605 17 0.531256 17H12.2188C12.5124 17 12.75 16.7624 12.75 16.4687V14.875H11.6875V15.9375Z" fill="black"/>
</g>
<defs>
<clipPath id="clip0">
<rect width="17" height="17" fill="white"/>
</clipPath>
</defs>
</svg>

<svg width="17" height="17" fill="none" xmlns="http://www.w3.org/2000/svg"><g clip-path="url(#clip0)" fill="#000"><path d="M13.437 4.937l-.751.751 2.28 2.28H7.438v1.063h7.528l-2.28 2.28.75.752L17 8.5l-3.563-3.563z"/><path d="M11.688 15.938H1.063V1.063h10.624v1.062h1.063V.531A.53.53 0 0012.219 0H.53A.53.53 0 000 .531V16.47A.53.53 0 00.531 17H12.22a.53.53 0 00.531-.531v-1.594h-1.063v1.063z"/></g><defs><clipPath id="clip0"><path fill="#fff" d="M0 0h17v17H0z"/></clipPath></defs></svg>
